!!!!SEGMENT: pl-sa--l-1636--076_anonim--kyrie-4.krn
!!!cenid: 17xx:783
!!!COM: Anonim
!!!COM-rismid: pe30004985
!!!CDT:
!!!CNT:
!!!OTL: Kyrie 4
!!!PDT:
!!!AGN: Sacred
!!!SMS-siglum: PL-SA
!!!SMS-shelfmark: L 1636
!!!SMS-shelfwork: 076 W
!!!SMS-variant:
!!!SMS-altvar:
!!!NIFC-rismid: 1001076924
!!!URL-scan: http://repozytorium.nifc.pl/skany/pl-sa-nut--l1636
!!!ONB-nifc: 22v, skan 0026, s. 4-5
**kern	**kern
*part1	*part1
*staff2	*staff1
*Iempty	*Iempty
*I"	*I"
*I'keyb	*I'keyb
*clefC4	*clefC1
*k[]	*k[]
*G:	*G:
*M2/2	*M2/2
*met(c|)	*met(c|)
=1	=1
*^	*^
*2\right	*2\right	*2\right	*2\right
!LO:TX:a:t=P:problem:wszystkie caudy z prawej	!	!LO:TX:a:t=P:problem:wszystkie caudy z prawej	!
!	!	!LO:TX:b:i:t=Kyrie 4.	!
2d	2B\ 2G\	2ryy	1g
2e 2B/	2E\	4b/	.
.	.	4cc/	.
=2	=2	=2	=2
*	*	*	*^
!	!	!	!	!LO:TX:b:t=P:problem:# below
4d 4A/	4D\	2dd/	4a/	4f#X\
4d 4B/	4G\	.	4b/	4g\
2c/	2A\	2cc/	2a/	4e\
.	.	.	.	4f#X\
*v	*v	*	*	*
*	*v	*v	*v
=3	=3
*	*^
*clefF4	*	*
8G\L	2dd 2b/	2g\
8F\	.	.
8E\	.	.
8D\J	.	.
8C/L	2ee 2cc/	2g\
8D/	.	.
8E/	.	.
8F/J	.	.
=4	=4	=4
*^	*	*
2G\	2ryy	4.dd 4.b/	4.g\
.	.	8cc/	8a\
2G/	8GG\L	2b/	2g\
.	8AA\	.	.
.	8BB\	.	.
.	8C\J	.	.
=5	=5	=5	=5
2A 2F#X/	2D\	2dd 2a/	2f#X\
!!LO:PB:g=original
2ryy	8E\L	4cc/	2g\
!	!LO:TX:a:t=P:problem:# above	!	!
.	8F#X\J	.	.
.	4G\	4b/	.
=6	=6	=6	=6
2A 2F#X/	2D\	2a/	2f#X\
8B/L	2E\	2g/	2ryy
8A/	.	.	.
8B/	.	.	.
8c/J	.	.	.
*	*	*v	*v
=7	=7	=7
4d/	1D	4f#X/
8c/L	.	2g/
8B/J	.	.
2A/	.	.
.	.	4f#X/
*v	*v	*
=8	=8
1G 1D 1GG	1g 1d 1B
!LO:TX:a:t=P:problem:utwór zakończony kreską z obustronną repetycją	!
==	==
*-	*-
!!!system-decoration: {(s1,s2)}
!!!RDF**kern: > = above
!!!RDF**kern: < = below
!!!EED: Mateusz Mrugas
!!!EST: 2020-12-08
!!!ENC: Tomasz Grochalski
!!!END: 2020-06-12
